X:113
T:MTHRSWM1- Mother, May I Go Out to Swim (song)
S:by Lester Keith, 1908 (Slurs missing in meas. 15-6, 31-2)
Q:1/4=100
L:1/4
M:3/4
K:D mixolydian
d|ded|B2B|ABA|E2G|FGG|E2F|(D3|D2)D|\
E^DE|G2A|B^AB|d2d|^cBG|FFE|(A3|A2)d|\
ded|B2B|ABA|E2G|FGF|EED|(B3|B2)B|\
^cBA|^c2A|BAF|B2F|GAB|^c2A|(d3|d)zd|\
d2e|d2e|(d3|d2)d|d2d|d2e|(d3|d)zz|]
